rospo-icon-theme-classic-common/32x32/apps/stride.svg

<svg height="32" viewBox="0 0 32 32" width="32" xmlns="http://www.w3.org/2000/svg"><g fill-rule="evenodd"><path d="m10.135706 4.9999997c-.6094313.0000598-1.103457.4832081-1.1035184 1.0792201 0 4.8969092-.9242857 8.4622612-1.8729643 9.8926042-.5375636.810495-.9482657 1.239102-1.5949294 1.542947-.6466631.303845-1.790073.492183-3.4607752.492183-.6094316.00006-1.1034581.483209-1.10351871 1.079221v8.834605c.00006101.596012.49408741 1.079161 1.10351871 1.07922 6.0176378 0 11.4784693-2.606119 14.4718293-7.119269 2.939584-4.43207 3.710366-9.808763 3.710366-15.8015112-.000061-.5960123-.494087-1.0791607-1.103519-1.0792201z" opacity=".2"/><path d="m10.135706 3.9999999c-.6094313.0000598-1.103457.4832081-1.1035184 1.0792201 0 4.8969091-.9242857 8.462261-1.8729643 9.892604-.5375636.810495-.9482657 1.239102-1.5949294 1.542947-.6466631.303845-1.790073.492183-3.4607752.492183-.6094316.00006-1.1034581.483209-1.10351871 1.079221v8.834605c.00006101.596012.49408741 1.079161 1.10351871 1.07922 6.0176378 0 11.4784693-2.606119 14.4718293-7.119269 2.939584-4.43207 3.710366-9.808763 3.710366-15.801511-.000061-.5960123-.494087-1.0791607-1.103519-1.0792201z" fill="#115ccc"/><path d="m10.134766 4c-.6094317.0000598-1.1034546.4840661-1.103516 1.0800781 0 4.8969091-.9224152 8.4622349-1.8710938 9.8925779-.5375636.810495-.9490394 1.239124-1.5957031 1.542969-.6466631.303845-1.7902353.492188-3.4609375.492187-.6094316.000061-1.103455.482113-1.1035156 1.078126v1c .0000606-.596013.494084-1.078065 1.1035156-1.078126 1.6707022.000001 2.8142744-.188342 3.4609375-.492187.6466637-.303845 1.0581395-.732474 1.5957031-1.542969.9486786-1.430343 1.8710938-4.995669 1.8710938-9.8925779.0000614-.596012.4940843-1.0800183 1.103516-1.0800781h9.046875c.58056.0000566 1.044056.4432018 1.08789 1 .004343-.3074928.015625-.6090681.015625-.9199219-.000061-.5960123-.494083-1.0800187-1.103515-1.0800781z" fill="#fff" opacity=".1"/></g><path d="m10.107588 4.9999997a1.1080731 1.109036 0 0 0 -.9965174 1.5929971l10.5516094 21.7821492a1.1080731 1.109036 0 0 0  .997598.624854h9.232658a1.1080731 1.109036 0 0 0  .996517-1.591915l-10.551609-21.7832319a1.1080731 1.109036 0 0 0 -.996517-.6248534z" opacity=".2"/><path d="m10.107588 3.9999999a1.1080731 1.109036 0 0 0 -.9965174 1.5929971l10.5516094 21.782149a1.1080731 1.109036 0 0 0  .997598.624854h9.232658a1.1080731 1.109036 0 0 0  .996517-1.591915l-10.551609-21.7832317a1.1080731 1.109036 0 0 0 -.996517-.6248534z" fill="#3387f5"/><path d="m10.107422 4a1.1080731 1.109036 0 0 0 -.9960939 1.59375l.0078125.015625a1.1080731 1.109036 0 0 1  .9882814-.609375h9.234375a1.1080731 1.109036 0 0 1  .996094.625l10.542968 21.767578a1.1080731 1.109036 0 0 0  .007813-.984375l-10.550781-21.783203a1.1080731 1.109036 0 0 0 -.996094-.625z" fill="#fff" opacity=".2"/></svg>

<svg xmlns="http://www.w3.org/2000/svg" width="32" height="32" version="1.1" viewBox="0 0 32 32">
 <path d="m 10.135706,4.9999997 c -0.6094313,5.98e-5 -1.103457,0.4832081 -1.1035184,1.0792201 0,4.8969092 -0.9242857,8.4622612 -1.8729643,9.8926042 -0.5375636,0.810495 -0.9482657,1.239102 -1.5949294,1.542947 -0.6466631,0.303845 -1.790073,0.492183 -3.4607752,0.492183 -0.6094316,6e-5 -1.1034581,0.483209 -1.10351871,1.079221 l 0,8.834605 C 1.000061,28.516792 1.4940874,28.999941 2.1035187,29 8.1211565,29 13.581988,26.393881 16.575348,21.880731 19.514932,17.448661 20.285714,12.071968 20.285714,6.0792198 20.285653,5.4832075 19.791627,5.0000591 19.182195,4.9999997 Z" style="opacity:0.2;fill-rule:evenodd"/>
 <path style="fill:#115ccc;fill-rule:evenodd" d="M 10.135706,3.9999999 C 9.5262747,4.0000597 9.032249,4.483208 9.0321876,5.07922 c 0,4.8969091 -0.9242857,8.462261 -1.8729643,9.892604 -0.5375636,0.810495 -0.9482657,1.239102 -1.5949294,1.542947 -0.6466631,0.303845 -1.790073,0.492183 -3.4607752,0.492183 -0.6094316,6e-5 -1.1034581,0.483209 -1.10351871,1.079221 l 0,8.834605 C 1.000061,27.516792 1.4940874,27.999941 2.1035187,28 8.1211565,28 13.581988,25.393881 16.575348,20.880731 19.514932,16.448661 20.285714,11.071968 20.285714,5.07922 20.285653,4.4832077 19.791627,4.0000593 19.182195,3.9999999 Z"/>
 <path style="opacity:0.1;fill:#ffffff;fill-rule:evenodd" d="M 10.134766 4 C 9.5253343 4.0000598 9.0313114 4.4840661 9.03125 5.0800781 C 9.03125 9.9769872 8.1088348 13.542313 7.1601562 14.972656 C 6.6225926 15.783151 6.2111168 16.21178 5.5644531 16.515625 C 4.91779 16.81947 3.7742178 17.007813 2.1035156 17.007812 C 1.494084 17.007873 1.0000606 17.489925 1 18.085938 L 1 19.085938 C 1.0000606 18.489925 1.494084 18.007873 2.1035156 18.007812 C 3.7742178 18.007813 4.91779 17.81947 5.5644531 17.515625 C 6.2111168 17.21178 6.6225926 16.783151 7.1601562 15.972656 C 8.1088348 14.542313 9.03125 10.976987 9.03125 6.0800781 C 9.0313114 5.4840661 9.5253343 5.0000598 10.134766 5 L 19.181641 5 C 19.762201 5.0000566 20.225697 5.4432018 20.269531 6 C 20.273874 5.6925072 20.285156 5.3909319 20.285156 5.0800781 C 20.285095 4.4840658 19.791073 4.0000594 19.181641 4 L 10.134766 4 z"/>
 <path d="M 10.107588,4.9999997 A 1.1080731,1.109036 0 0 0 9.1110706,6.5929968 L 19.66268,28.375146 A 1.1080731,1.109036 0 0 0 20.660278,29 l 9.232658,0 a 1.1080731,1.109036 0 0 0 0.996517,-1.591915 L 20.337844,5.6248531 A 1.1080731,1.109036 0 0 0 19.341327,4.9999997 l -9.233739,0 z" style="opacity:0.2"/>
 <path style="fill:#3387f5" d="M 10.107588,3.9999999 A 1.1080731,1.109036 0 0 0 9.1110706,5.592997 L 19.66268,27.375146 A 1.1080731,1.109036 0 0 0 20.660278,28 l 9.232658,0 a 1.1080731,1.109036 0 0 0 0.996517,-1.591915 L 20.337844,4.6248533 A 1.1080731,1.109036 0 0 0 19.341327,3.9999999 l -9.233739,0 z"/>
 <path style="opacity:0.2;fill:#ffffff" d="M 10.107422 4 A 1.1080731 1.109036 0 0 0 9.1113281 5.59375 L 9.1191406 5.609375 A 1.1080731 1.109036 0 0 1 10.107422 5 L 19.341797 5 A 1.1080731 1.109036 0 0 1 20.337891 5.625 L 30.880859 27.392578 A 1.1080731 1.109036 0 0 0 30.888672 26.408203 L 20.337891 4.625 A 1.1080731 1.109036 0 0 0 19.341797 4 L 10.107422 4 z"/>
</svg>
